X: 3
M: 6/8
L: 1/8
K: G
|: "G"edB edB | G2G B2B | "C"AGE AGE | "G"D3- D2C |
|: [D2B,2][DB,] DEF | "C"E2E A2G | "D7"F2F FED | "G"G2G GAB |



